images_Kids_svg/cmd/sc_print.svg

<?xml version="1.0" encoding="UTF-8" standalone="no"?>
<svg
   xmlns:dc="http://purl.org/dc/elements/1.1/"
   xmlns:cc="http://creativecommons.org/ns#"
   xmlns:rdf="http://www.w3.org/1999/02/22-rdf-syntax-ns#"
   xmlns:svg="http://www.w3.org/2000/svg"
   xmlns="http://www.w3.org/2000/svg"
   xmlns:sodipodi="http://sodipodi.sourceforge.net/DTD/sodipodi-0.dtd"
   xmlns:inkscape="http://www.inkscape.org/namespaces/inkscape"
   width="16px"
   height="16px"
   viewBox="0 0 16 16"
   version="1.1"
   id="svg25"
   sodipodi:docname="sc_print.svg"
   inkscape:version="0.92.4 (5da689c313, 2019-01-14)">
  <metadata
     id="metadata31">
    <rdf:RDF>
      <cc:Work
         rdf:about="">
        <dc:format>image/svg+xml</dc:format>
        <dc:type
           rdf:resource="http://purl.org/dc/dcmitype/StillImage" />
      </cc:Work>
    </rdf:RDF>
  </metadata>
  <defs
     id="defs29" />
  <sodipodi:namedview
     pagecolor="#ffffff"
     bordercolor="#666666"
     borderopacity="1"
     objecttolerance="10"
     gridtolerance="10"
     guidetolerance="10"
     inkscape:pageopacity="0"
     inkscape:pageshadow="2"
     inkscape:window-width="640"
     inkscape:window-height="480"
     id="namedview27"
     showgrid="false"
     inkscape:zoom="25.102291"
     inkscape:cx="11.962876"
     inkscape:cy="7.4356971"
     inkscape:current-layer="svg25" />
  <path
     inkscape:connector-curvature="0"
     id="path2"
     d="M 13.113281,1.953125 V 4.179688 H 2.886719 V 1.953125 C 2.886719,1.425781 3.3125,1 3.839844,1 h 8.320312 c 0.527344,0 0.953125,0.425781 0.953125,0.953125 z m 0,0"
     style="fill:#e6e6e6;fill-opacity:1;fill-rule:nonzero;stroke:none" />
  <path
     inkscape:connector-curvature="0"
     id="path4"
     d="M 2.886719,3.035156 H 13.113281 V 4.179688 H 2.886719 Z m 0,0"
     style="fill:#cccccc;fill-opacity:1;fill-rule:nonzero;stroke:none" />
  <path
     inkscape:connector-curvature="0"
     id="path6"
     d="m 13.113281,12.636719 h 0.492188 C 14.375,12.636719 15,12.011719 15,11.242188 V 5.574219 C 15,4.804688 14.375,4.179688 13.605469,4.179688 H 2.394531 C 1.625,4.179688 1,4.804688 1,5.574219 v 5.667969 c 0,0.769531 0.625,1.394531 1.394531,1.394531 h 0.492188"
     style="fill:#45ccc5;fill-opacity:1;fill-rule:nonzero;stroke:none" />
  <path
     inkscape:connector-curvature="0"
     id="path8"
     d="M 2.3125,11.242188 V 5.574219 c 0,-0.769531 0.625,-1.394531 1.394531,-1.394531 h -1.3125 C 1.625,4.179688 1,4.804688 1,5.574219 v 5.667969 c 0,0.769531 0.625,1.394531 1.394531,1.394531 h 1.3125 c -0.769531,0 -1.394531,-0.625 -1.394531,-1.394531 z m 0,0"
     style="fill:#546170;fill-opacity:1;fill-rule:nonzero;stroke:none" />
  <path
     inkscape:connector-curvature="0"
     id="path10"
     d="m 13.113281,11.4375 c 0.507813,0 0.914063,-0.410156 0.914063,-0.914062 V 10.40625 c 0,-0.503906 -0.40625,-0.914062 -0.914063,-0.914062 H 2.886719 c -0.507813,0 -0.914063,0.410156 -0.914063,0.914062 v 0.117188 c 0,0.503906 0.40625,0.914062 0.914063,0.914062"
     style="fill:#546170;fill-opacity:1;fill-rule:nonzero;stroke:none" />
  <path
     inkscape:connector-curvature="0"
     id="path12"
     d="M 13.113281,10.40625 H 2.886719 v 3.640625 C 2.886719,14.574219 3.3125,15 3.839844,15 h 8.320312 c 0.527344,0 0.953125,-0.425781 0.953125,-0.953125 z m 0,0"
     style="fill:#e6e6e6;fill-opacity:1;fill-rule:nonzero;stroke:none" />
  <path
     inkscape:connector-curvature="0"
     id="path14"
     d="m 2.886719,10.40625 h 10.226562 v 1.144531 H 2.886719 Z m 0,0"
     style="fill:#cccccc;fill-opacity:1;fill-rule:nonzero;stroke:none" />
  <path
     inkscape:connector-curvature="0"
     id="path16"
     d="m 4.113281,6.179688 c 0,0.441406 -0.355469,0.800781 -0.800781,0.800781 -0.441406,0 -0.796875,-0.359375 -0.796875,-0.800781 0,-0.441407 0.355469,-0.800782 0.796875,-0.800782 0.445312,0 0.800781,0.359375 0.800781,0.800782 z m 0,0"
     style="fill:#ff6866;fill-opacity:1;fill-rule:nonzero;stroke:none" />
  <path
     inkscape:connector-curvature="0"
     id="path18"
     d="m 6.472656,6.179688 c 0,0.441406 -0.359375,0.800781 -0.800781,0.800781 -0.441406,0 -0.800781,-0.359375 -0.800781,-0.800781 0,-0.441407 0.359375,-0.800782 0.800781,-0.800782 0.441406,0 0.800781,0.359375 0.800781,0.800782 z m 0,0"
     style="fill:#c7f559;fill-opacity:1;fill-rule:nonzero;stroke:none" />
  <path
     inkscape:connector-curvature="0"
     id="path20"
     d="M 11.628906,11.9375 H 4.371094 c -0.117188,0 -0.214844,-0.09766 -0.214844,-0.214844 0,-0.117187 0.097656,-0.214844 0.214844,-0.214844 h 7.257812 c 0.117188,0 0.214844,0.09766 0.214844,0.214844 0,0.117188 -0.09766,0.214844 -0.214844,0.214844 z m 0,0"
     style="fill:#ff6866;fill-opacity:1;fill-rule:nonzero;stroke:none" />
  <path
     inkscape:connector-curvature="0"
     id="path22"
     d="M 11.628906,13.25 H 4.371094 c -0.117188,0 -0.214844,-0.09375 -0.214844,-0.214844 0,-0.117187 0.097656,-0.214844 0.214844,-0.214844 h 7.257812 c 0.117188,0 0.214844,0.09766 0.214844,0.214844 0,0.121094 -0.09766,0.214844 -0.214844,0.214844 z m 0,0"
     style="fill:#ff6866;fill-opacity:1;fill-rule:nonzero;stroke:none" />
</svg>

<?xml version="1.0" encoding="UTF-8"?>
<svg xmlns="http://www.w3.org/2000/svg" xmlns:xlink="http://www.w3.org/1999/xlink" width="16px" height="16px" viewBox="0 0 16 16" version="1.1">
<g id="surface1">
<path style=" stroke:none;fill-rule:nonzero;fill:rgb(90.196079%,90.196079%,90.196079%);fill-opacity:1;" d="M 13.113281 1.953125 L 13.113281 4.179688 L 2.886719 4.179688 L 2.886719 1.953125 C 2.886719 1.425781 3.3125 1 3.839844 1 L 12.160156 1 C 12.6875 1 13.113281 1.425781 13.113281 1.953125 Z M 13.113281 1.953125 "/>
<path style=" stroke:none;fill-rule:nonzero;fill:rgb(80.000001%,80.000001%,80.000001%);fill-opacity:1;" d="M 2.886719 3.035156 L 13.113281 3.035156 L 13.113281 4.179688 L 2.886719 4.179688 Z M 2.886719 3.035156 "/>
<path style=" stroke:none;fill-rule:nonzero;fill:rgb(27.843139%,80.392158%,77.64706%);fill-opacity:1;" d="M 13.113281 12.636719 L 13.605469 12.636719 C 14.375 12.636719 15 12.011719 15 11.242188 L 15 5.574219 C 15 4.804688 14.375 4.179688 13.605469 4.179688 L 2.394531 4.179688 C 1.625 4.179688 1 4.804688 1 5.574219 L 1 11.242188 C 1 12.011719 1.625 12.636719 2.394531 12.636719 L 2.886719 12.636719 "/>
<path style=" stroke:none;fill-rule:nonzero;fill:rgb(33.333334%,38.431373%,44.705883%);fill-opacity:1;" d="M 2.3125 11.242188 L 2.3125 5.574219 C 2.3125 4.804688 2.9375 4.179688 3.707031 4.179688 L 2.394531 4.179688 C 1.625 4.179688 1 4.804688 1 5.574219 L 1 11.242188 C 1 12.011719 1.625 12.636719 2.394531 12.636719 L 3.707031 12.636719 C 2.9375 12.636719 2.3125 12.011719 2.3125 11.242188 Z M 2.3125 11.242188 "/>
<path style=" stroke:none;fill-rule:nonzero;fill:rgb(33.333334%,38.431373%,44.705883%);fill-opacity:1;" d="M 13.113281 11.4375 C 13.621094 11.4375 14.027344 11.027344 14.027344 10.523438 L 14.027344 10.40625 C 14.027344 9.902344 13.621094 9.492188 13.113281 9.492188 L 2.886719 9.492188 C 2.378906 9.492188 1.972656 9.902344 1.972656 10.40625 L 1.972656 10.523438 C 1.972656 11.027344 2.378906 11.4375 2.886719 11.4375 "/>
<path style=" stroke:none;fill-rule:nonzero;fill:rgb(90.196079%,90.196079%,90.196079%);fill-opacity:1;" d="M 13.113281 10.40625 L 2.886719 10.40625 L 2.886719 14.046875 C 2.886719 14.574219 3.3125 15 3.839844 15 L 12.160156 15 C 12.6875 15 13.113281 14.574219 13.113281 14.046875 Z M 13.113281 10.40625 "/>
<path style=" stroke:none;fill-rule:nonzero;fill:rgb(80.000001%,80.000001%,80.000001%);fill-opacity:1;" d="M 2.886719 10.40625 L 13.113281 10.40625 L 13.113281 11.550781 L 2.886719 11.550781 Z M 2.886719 10.40625 "/>
<path style=" stroke:none;fill-rule:nonzero;fill:rgb(100%,41.568628%,40.000001%);fill-opacity:1;" d="M 4.113281 6.179688 C 4.113281 6.621094 3.757812 6.980469 3.3125 6.980469 C 2.871094 6.980469 2.515625 6.621094 2.515625 6.179688 C 2.515625 5.738281 2.871094 5.378906 3.3125 5.378906 C 3.757812 5.378906 4.113281 5.738281 4.113281 6.179688 Z M 4.113281 6.179688 "/>
<path style=" stroke:none;fill-rule:nonzero;fill:rgb(78.039217%,96.470588%,35.294119%)F;fill-opacity:1;" d="M 6.472656 6.179688 C 6.472656 6.621094 6.113281 6.980469 5.671875 6.980469 C 5.230469 6.980469 4.871094 6.621094 4.871094 6.179688 C 4.871094 5.738281 5.230469 5.378906 5.671875 5.378906 C 6.113281 5.378906 6.472656 5.738281 6.472656 6.179688 Z M 6.472656 6.179688 "/>
<path style=" stroke:none;fill-rule:nonzero;fill:rgb(100%,41.568628%,40.000001%);fill-opacity:1;" d="M 11.628906 11.9375 L 4.371094 11.9375 C 4.253906 11.9375 4.15625 11.839844 4.15625 11.722656 C 4.15625 11.605469 4.253906 11.507812 4.371094 11.507812 L 11.628906 11.507812 C 11.746094 11.507812 11.84375 11.605469 11.84375 11.722656 C 11.84375 11.839844 11.746094 11.9375 11.628906 11.9375 Z M 11.628906 11.9375 "/>
<path style=" stroke:none;fill-rule:nonzero;fill:rgb(100%,41.568628%,40.000001%);fill-opacity:1;" d="M 11.628906 13.25 L 4.371094 13.25 C 4.253906 13.25 4.15625 13.15625 4.15625 13.035156 C 4.15625 12.917969 4.253906 12.820312 4.371094 12.820312 L 11.628906 12.820312 C 11.746094 12.820312 11.84375 12.917969 11.84375 13.035156 C 11.84375 13.15625 11.746094 13.25 11.628906 13.25 Z M 11.628906 13.25 "/>
</g>
</svg>
